!!!COM: Corelli, Arcangelo
!!!OTL: Sonate a tre [in A]
!!!XEN: Trio Sonata Opus 1, No. 3
!!!OPS: Opus 1
!!!ONM: No. 3
!!!OMV: Movement 2.
!!!YEC: Copyright 1994, Center for Computer Assisted Research in the Humanities
!!!YEM: Rights to all derivative electronic formats reserved.
!!!YEM: Refer to licensing agreement for further details.
!! For the following instrumentation: Violino I & II, Violone/Archlute,
!!    and Organo.
!! Allegro.
**kern	**kern	**kern	**kern
*ICklav	*ICstr	*ICstr	*ICstr
*Iorgan	*Icello	*Ivioln	*Ivioln
*	*Iarchl	*	*
!Organo	!Violone	!Violin 2	!Violin 1
!	! or	!	!
!	!Archlute	!	!
*>[A,A]	*>[A,A]	*>[A,A]	*>[A,A]
*>A	*>A	*>A	*>A
*clefF4	*clefF4	*clefG2	*clefG2
*k[f#c#]	*k[f#c#]	*k[f#c#]	*k[f#c#]
*A:	*A:	*A:	*A:
*M4/4	*M4/4	*M4/4	*M4/4
*MM68	*MM68	*MM68	*MM68
=1-	=1-	=1-	=1-
4AA/	4AA/	8r	1r
.	.	8a\L	.
2A\	2A\	8cc#\	.
.	.	8a\J	.
.	.	8b\L	.
.	.	8e\	.
4G#\	4G#\	8ee\	.
.	.	8dd\J	.
=2	=2	=2	=2
4A\	4A\	8cc#\L	8r
.	.	8a\J	8ee\L
8r	8r	2ee\	8gg#\
8c#\	8c#\	.	8ee\J
4B\	4B\	.	8ff#\L
.	.	.	8b\
4BB/	4BB/	4dd#\	8bb\
.	.	.	8aa\J
=3	=3	=3	=3
4.E\	4.E\	4ee\	8gg#\L
.	.	.	8b\J
.	.	8r	4ee\
8C#/	8C#/	8e/	.
4.D\	4.D\	4f#/	8r
.	.	.	8a/
.	.	8r	4dd\
8BB/	8BB/	8f#/	.
=4	=4	=4	=4
8E/L	8E/L	8g#/L	8r
8AA/	8AA/	8e/J	8cc#\L
8C#/	8C#/	2a/	8ee\
8AA/J	8AA/J	.	8cc#\J
4BB/	8BB/L	.	8dd\L
.	8EE/	.	8cc#\J
4EE/	8E/	4g#/	4b\
.	8D/J	.	.
=5	=5	=5	=5
4AA/	8C#/L	8a\L	8cc#\L
.	8AA/J	8cc#\J	8ee\
8r	8r	2ff#\	8aa\
8F#\	8F#\	.	8a\J
4.G#\	4.G#\	.	8b\L
.	.	.	8dd#\
.	.	4ee\	8gg#\
8E\	8E\	.	8g#\J
=6	=6	=6	=6
4.F#\	4.F#\	2r	8a\L
.	.	.	8cc#\
.	.	.	8ff#\
8D\	8D\	.	8f#\J
4.E\	4.E\	8r	8g#/L
.	.	8e/L	8b/J
.	.	8g#/	[4ee\
8C#/	8C#/	8e/J	.
=7	=7	=7	=7
2BB/	2BB/	8f#/L	4ee\]
.	.	8B/	.
.	.	8b/	4dd#\
.	.	8a/J	.
4.E\	4.E\	8g#/L	4ee\
.	.	8b/	.
.	.	8ee/	[4cc#\
8C#/	8C#/	8e/J	.
=8	=8	=8	=8
4.D\	4.D\	8f#/L	4cc#\]
.	.	8a/	.
.	.	8dd/	2b\
8BB/	8BB/	8d/J	.
4.C#/	4.C#/	8e/L	.
.	.	8g#/	.
.	.	8cc#/	4a/
8A\	8A\	8c#/J	.
=9	=9	=9	=9
4F#\	4F#\	8d/L	2r
.	.	8f#/	.
4D\	4D\	8b/	.
.	.	8a/J	.
8E\L	8E\L	8g#/L	8r
8C#\	8C#\	8e/J	8a\L
8AA\	8AA\	[4a/	8cc#\
8F#\J	8F#\J	.	8a\J
=10	=10	=10	=10
4E\	4E\	4a/]	8b\L
.	.	.	8e\
4EE/	4EE/	4g#/	8ee\
.	.	.	8dd\J
2AA/	4AA/	4a/	8cc#\L
.	.	.	8a\J
.	8A\L	4r	[4ff#\
.	8AA\J	.	.
=11	=11	=11	=11
4BB/	8BB/L	2gg#\	8ff#\L]
.	8D#/	.	8b\J
4GG#/	8G#/	.	2ee\
.	8GG#/J	.	.
2AA/	8AA/L	4.ff#\	.
.	8C#/	.	.
.	8F#/	.	[4aa\
.	8AA/J	8cc#\	.
=12	=12	=12	=12
8BB\L	8BB\L	8dd#\L	8aa\L]
8E\	8E\	8b\J	8gg#\
8G#\	8G#\	2ee\	8bb\
8E\J	8E\J	.	8gg#\J
4F#\	8F#\L	.	8aa\L
.	8BB\	.	8gg#\J
4BB/	8B\	4dd#\	4ff#\
.	8A\J	.	.
=13	=13	=13	=13
4E\	8G#\L	8ee\L	8gg#\L
.	8E\	8gg#\	8b\
8C#/L	8C#\	8aa\	8ee\
8AA/J	8AA\J	8cc#\J	8e\J
4D\	4D\	8dd\L	8f#/L
.	.	8ff#\	8a/
[4B\	[4B\	8f#\	8dd/
.	.	8b\J	8d/J
=14	=14	=14	=14
4B\]	4B\]	8cc#\L	8e/L
.	.	8ee\	8g#/
2A\	2A\	8aa\	8cc#/
.	.	8a\J	8c#/J
.	.	4b\	8d/L
.	.	.	8f#/
8G#\L	8G#\L	4r	8b/
8F#\J	8F#\J	.	8a/J
=15	=15	=15	=15
8E\L	8E\L	8r	8g#/L
8C#\	8C#\	8a\L	8e/J
8AA\	8AA\	8cc#\	2a/
8F#\J	8F#\J	8a\J	.
4E\	4E\	8b\L	.
.	.	8e\	.
4EE/	4EE/	8ee\	4g#/
.	.	8dd\J	.
=16	=16	=16	=16
4AA/	4AA/	8cc#\L	8a/L
.	.	8a\J	8e/
8r	8r	2ee\	8g#/
8C#/	8C#/	.	8e/J
2BB/	2BB/	.	8f#/L
.	.	.	8B/
.	.	4dd#\	8b/
.	.	.	8a/J
=17	=17	=17	=17
4E\	4E\	8ee\L	8g#\L
.	.	8b\J	(16gg#\L
.	.	.	16ff#\JJ)
8r	8r	4cc#\	16ee\LL
.	.	.	16dd\
8E\	8E\	.	16cc#\
.	.	.	16b\JJ
4F#\	4F#\	8r	8a\L
.	.	8cc#\	(16aa\L
.	.	.	16gg#\JJ)
8r	8r	4dd\	16ff#\LL
.	.	.	16ee\
8F#\	8F#\	.	16dd\
.	.	.	16cc#\JJ
=18	=18	=18	=18
4G#\	4G#\	8r	8b\L
.	.	8dd\	(16bb\L
.	.	.	16aa\JJ)
8r	8r	4ee\	16gg#\LL
.	.	.	16ff#\
8G#\	8G#\	.	16ee\
.	.	.	16dd\JJ
4A\	4A\	8r	8cc#\L
.	.	8cc#\	8ee\
8r	8r	4ff#\	8aa\
8A\	8A\	.	8a\J
=19	=19	=19	=19
4G\	4G\	8r	8b\L
.	.	8b\	8dd\
8r	8r	4ee\	8gg\
8G\	8G\	.	8b\J
8A\L	8A\L	8r	8cc#\L
8F#\	8F#\	8dd\L	8a\J
8D\	8D\	8ff#\	[4dd\
8B\J	8B\J	8dd\J	.
=20	=20	=20	=20
4A\	4A\	8ee\L	4dd\]
.	.	8a\	.
4AA/	4AA/	8aa\	4cc#\
.	.	8gg\J	.
4.D\	4.D\	8ff#\L	8dd\L
.	.	8a\	8ff#\J
.	.	8dd\	[4bb\
8BB/	8BB/	8d\J	.
=21	=21	=21	=21
4.C#/	4.C#/	8e/L	8bb\L]
.	.	8g#/	8ee\J
.	.	8cc#/	4aa\
8A\	8A\	8c#/J	.
4F#\	4F#\	8d/L	2r
.	.	8f#/	.
4D\	4D\	8b/	.
.	.	8a/J	.
=22	=22	=22	=22
8E\L	8E\L	8g#/L	8r
8C#\	8C#\	8e/J	8a\L
8AA\	8AA\	2a/	8cc#\
8F#\J	8F#\J	.	8a\J
4E\	4E\	.	8b\L
.	.	.	8e\
4EE/	4EE/	4g#/	8ee\
.	.	.	8dd\J
=23	=23	=23	=23
4AA/	4AA/	8a\L	8cc#\L
.	.	(16cc#\L	8ee\J
.	.	16b\JJ)	.
8r	8r	16a/LL	4ff#\
.	.	16g#/	.
8AA/	8AA/	16f#/	.
.	.	16e/JJ	.
4BB/	4BB/	8d/L	8r
.	.	(16dd/L	8ff#\
.	.	16cc#/JJ)	.
8r	8r	16b/LL	4gg#\
.	.	16a/	.
8BB/	8BB/	16g#/	.
.	.	16f#/JJ	.
=24	=24	=24	=24
4C#/	4C#/	8e\L	8r
.	.	(16ee\L	(16gg#\LL
.	.	16dd\JJ)	16ff#\JJ)
8r	8r	16cc#/LL	16ee\LL
.	.	16b/	16dd\
8C#/	8C#/	16a/	16cc#\
.	.	16g#/JJ	16b\JJ
4D\	4D\	8f#\L	8a\L
.	.	(16ff#\L	(16aa\L
.	.	16ee\JJ)	16gg#\JJ)
8r	8r	16dd\LL	16ff#\LL
.	.	16cc#\	16ee\
8D\	8D\	16b\	16dd\
.	.	16a\JJ	16cc#\JJ
=25	=25	=25	=25
4.E\	4.E\	8g#/L	8b\L
.	.	8e/	8b\J
.	.	8g#/	2ee\
8C#/	8C#/	8e/J	.
2BB/	2BB/	8f#/L	.
.	.	8B/	.
.	.	8b/	4dd#\
.	.	8a/J	.
=26	=26	=26	=26
4E\	8E\L	8g#/L	4ee\
.	(16G#\L	8b/J	.
.	16F#\JJ)	.	.
4AA/	16E/LL	4cc#\	8r
.	16D/	.	.
.	16C#/	.	8ee\
.	16BB/JJ	.	.
4FF#/	8AA\L	8r	4ff#\
.	(16A\L	8cc#\	.
.	16G#\JJ)	.	.
4D\	16F#\LL	4dd\	8r
.	16E\	.	.
.	16D\	.	8ff#\
.	16C#\JJ	.	.
=27	=27	=27	=27
4BB/	8BB\L	8r	4gg#\
.	(16B\L	8dd\	.
.	16A\JJ)	.	.
4EE/	16G#\LL	4ee\	8r
.	16F#\	.	.
.	16E\	.	8gg#\
.	16D\JJ	.	.
4AA/	8C#\L	8r	4aa\
.	(16c#\L	8ee\	.
.	16B\JJ)	.	.
4F#\	16A\LL	4ff#\	8r
.	16G#\	.	.
.	16F#\	.	8aa\
.	16E\JJ	.	.
=28	=28	=28	=28
4D\	8D\L	8r	4bb\
.	(16d\L	8ff#\	.
.	16c#\JJ)	.	.
4BB/	16B\LL	4gg#\	8r
.	16A\	.	.
.	16G#\	.	8bb\
.	16F#\JJ	.	.
8E\L	8E\L	8r	8gg#\L
8C#\	8C#\	8a\L	8ee\J
8AA\	8AA\	8cc#\	[4aa\
8F#\J	8F#\J	8a\J	.
=29	=29	=29	=29
4E\	4E\	8b\L	4aa\]
.	.	8e\	.
4EE/	4EE/	8ee\	4gg#\
.	.	8dd\J	.
4.AA/	4.AA/	8cc#\L	8aa\L
.	.	8cc#\J	8ee\
.	.	[4ff#\	8aa\
8F#\	8F#\	.	8a\J
=30	=30	=30	=30
4.G#\	4.G#\	8ff#\L]	8b\L
.	.	8b\J	8dd#\
.	.	[4ee\	8gg#\
8E\	8E\	.	8g#\J
4.F#\	4.F#\	8ee\L]	8a\L
.	.	8a\J	8cc#\
.	.	[4aa\	8ff#\
(16G#\LL	(16G#\LL	.	8ee\J
16A\JJ)	16A\JJ)	.	.
=31	=31	=31	=31
8B\L	8B\L	8aa\L]	8dd#\L
8G#\	8G#\	8b\J	8ee\
8E\	8E\	2ee\	8gg#\
8c#\J	8c#\J	.	8ee\J
4B\	4B\	.	8ff#\L
.	.	.	8b\
4BB/	4BB/	4dd#\	8bb\
.	.	.	8aa\J
=32	=32	=32	=32
4E\	4E\	8ee\L	8gg#\L
.	.	8b\	8ee\J
8r	8r	8ee\	2ccc#\
8C#/	8C#/	8e\J	.
4.D\	4.D\	8f#/L	.
.	.	8a/	.
.	.	8dd/	[4bb\
8BB/	8BB/	8d/J	.
=33	=33	=33	=33
4.C#/	4.C#/	8e/L	4bb\]
.	.	8g#/	.
.	.	8cc#/	2aa\
8A\	8A\	8c#/J	.
4F#\	4F#\	8d/L	.
.	.	8f#/	.
4D\	4D\	8b/	4r
.	.	8a/J	.
=34	=34	=34	=34
8E/L	8E/L	8g#/L	8r
8AA/	8AA/	8e/J	8cc#\L
8C#/	8C#/	2a/	8ee\
8AA/J	8AA/J	.	8cc#\J
4BB/	8BB/L	.	8dd\L
.	8EE/	.	8cc#\J
4EE/	8E/	4g#/	4b\
.	8D/J	.	.
=35	=35	=35	=35
4AA/	8C#/L	8a\L	8a\L
.	8AA/J	8ee\	8cc#\
2F#\	2F#\	8aa\	8dd\
.	.	8a\J	8f#\J
.	.	8b\L	8g#/L
.	.	8dd#\	8b/
[4E\	[4E\	8gg#\	8ee/
.	.	8g#\J	8e/J
=36	=36	=36	=36
4E\]	4E\]	8a\L	8f#/L
.	.	8cc#\	8a/
2D\	2D\	8ff#\	8dd/
.	.	8a\J	8f#/J
.	.	8b/L	8g#\L
.	.	8g#/	8b\
4C#/	4C#/	8a/	8cc#\
.	.	8e/J	8ee\J
=37	=37	=37	=37
2BB/	2BB/	8f#/L	4ee\
.	.	8B/	.
.	.	8b/	4dd#\
.	.	8a/J	.
2E\	4E\	8g#/L	4ee\
.	.	8e/J	.
.	8e\L	[4cc#\	4r
.	8E\J	.	.
=38	=38	=38	=38
4F#\	8F#\L	4cc#\]	2dd\
.	8A\	.	.
4D\	8d\	2b\	.
.	8D\J	.	.
4E\	8E\L	.	2cc#\
.	8G#\	.	.
4C#/	8c#\	[4a/	.
.	8C#\J	.	.
=39	=39	=39	=39
4D\	8D\L	4a/]	4.b\
.	8F#\	.	.
4BB/	8B\	8g#/L	.
.	8BB\J	8f#/J	8a/
4.C#/	8C#/L	4.e#/	4g#/
.	8BB/	.	.
.	8C#/	.	[4cc#\
8AA/	8AA/J	8cc#\	.
=40	=40	=40	=40
4.BB/	8BB/L	4.dd#\	4cc#\]
.	8AA/	.	.
.	8BB/	.	2b\
8GG#/	8GG#/J	8dd#\	.
4.C#/	8C#/L	4.ee#\	.
.	8BB/	.	.
.	8C#/	.	4a/
8AA/	8AA/J	8ff#\	.
=41	=41	=41	=41
8BB/L	8BB/L	4.ff#\	2g#/
8GG#/	8GG#/	.	.
8C#/	8C#/	.	.
8CC#/J	8CC#/J	8ee#\	.
4.FF#/	4.FF#/	4ff#\	8f#\L
.	.	.	8cc#\
.	.	[4dd\	8ff#\
8D\	8D\	.	8f#\J
=42	=42	=42	=42
4.E\	4.E\	4dd\]	8g#/L
.	.	.	8b/
.	.	2cc#\	8ee/
8C#/	8C#/	.	8e/J
4.D\	4.D\	.	8f#/L
.	.	.	8a/
.	.	[4b\	8dd/
8D\	8D\	.	8f#/J
=43	=43	=43	=43
8E\L	8E\L	8b/L]	8g#/L
8C#\	8C#\	8e/J	8a/
8AA\	8AA\	2a/	8cc#/
8F#\J	8F#\J	.	8a/J
4E\	4E\	.	8b\L
.	.	.	8e\
4EE/	4EE/	4g#/	8ee\
.	.	.	8dd\J
=44	=44	=44	=44
4.AA/	4.AA/	8a\L	8cc#\L
.	.	(16ee\L	(16cc#\L
.	.	16dd\JJ)	16b\JJ)
.	.	16cc#/LL	16a/LL
.	.	16b/	16g#/
8AA/	8AA/	16a/	16f#/
.	.	16g#/JJ	16e/JJ
4.BB/	4.BB/	8f#\L	8d/L
.	.	(16ff#\L	(16dd/L
.	.	16ee\JJ)	16cc#/JJ)
.	.	16dd\LL	16b/LL
.	.	16cc#\	16a/
8BB/	8BB/	16b\	16g#/
.	.	16a\JJ	16f#/JJ
=45	=45	=45	=45
4.C#/	4.C#/	8g#\L	8e\L
.	.	(16gg#\L	(16ee\L
.	.	16ff#\JJ)	16dd\JJ)
.	.	16ee\LL	16cc#/LL
.	.	16dd\	16b/
8C#/	8C#/	16cc#\	16a/
.	.	16b\JJ	16g#/JJ
4F#\	4F#\	8cc#\L	4a/
.	.	8dd#\	.
8C#/L	8C#/L	8ee\	[4aa\
8AA/J	8AA/J	8ff#\J	.
=46	=46	=46	=46
8BB\L	8BB\L	8dd#\L	8aa\L]
8E\	8E\	8b\J	8gg#\
8G#\	8G#\	2ee\	8bb\
8E\J	8E\J	.	8gg#\J
4F#\	8F#\L	.	8aa\L
.	8BB\	.	8gg#\J
4BB/	8B\	4dd#\	4ff#\
.	8A\J	.	.
=47	=47	=47	=47
4E\	8G#\L	4ee\	8ee\L
.	(16G#\L	.	8b\J
.	16F#\JJ)	.	.
4AA/	16E/LL	8r	4cc#\
.	16D/	.	.
.	16C#/	8ee\	.
.	16BB/JJ	.	.
4FF#/	8AA\L	4ff#\	8r
.	(16A\L	.	8cc#\
.	16G#\JJ)	.	.
4D\	16F#\LL	8r	4dd\
.	16E\	.	.
.	16D\	8ff#\	.
.	16C#\JJ	.	.
=48	=48	=48	=48
4BB/	8BB\L	4gg#\	8r
.	(16B\L	.	8dd\
.	16A\JJ)	.	.
4EE/	16G#\LL	8r	4ee\
.	16F#\	.	.
.	16E\	8gg#\	.
.	16D\JJ	.	.
4AA/	8C#\L	4aa\	8r
.	(16c#\L	.	8ee\
.	16B\JJ)	.	.
4F#\	16A\LL	8r	4ff#\
.	16G#\	.	.
.	16F#\	8aa\	.
.	16E\JJ	.	.
=49	=49	=49	=49
4D\	8D\L	4bb\	8r
.	(16d\L	.	8ff#\
.	16c#\JJ)	.	.
4BB/	16B\LL	8r	4gg#\
.	16A\	.	.
.	16G#\	8bb\	.
.	16F#\JJ	.	.
8E\L	8E\L	8gg#\L	8r
8C#\	8C#\	8ee\J	8a\L
8AA\	8AA\	[4aa\	8cc#\
8F#\J	8F#\J	.	8a\J
=50	=50	=50	=50
4E\	4E\	4aa\]	8b\L
.	.	.	8e\
4EE/	4EE/	4gg#\	8ee\
.	.	.	8dd\J
4.AA/	4.AA/	8aa\L	8cc#\L
.	.	8cc#\	8a\J
.	.	8aa\	[4ff#\
8F#\	8F#\	8a\J	.
=51	=51	=51	=51
4.G#\	4.G#\	8b\L	4ff#\]
.	.	8dd#\	.
.	.	8gg#\	2ee\
8E\	8E\	8g#\J	.
4.F#\	4.F#\	8a\L	.
.	.	8cc#\	.
.	.	8ff#\	[4ddn\
8D\	8D\	8f#\J	.
=52	=52	=52	=52
4.E\	4.E\	8g#/L	4dd\]
.	.	8b/	.
.	.	8ee/	2cc#\
8C#/	8C#/	8e/J	.
4.D\	4.D\	8f#/L	.
.	.	8a/	.
.	.	8dd/	[4b\
8D\	8D\	8f#/J	.
=53	=53	=53	=53
4E\	4E\	8g#/L	4b\]
.	.	8e/J	.
4D#\	4D#\	2a/	4cc\
4E\	4E\	.	2b\
4EE/	4EE/	4g#/	.
=54	=54	=54	=54
1AA;/	1AA;/	1a;/	1a;/
==	==	==	==
*-	*-	*-	*-
!!!CDT: 1653/2/17/-1713/1/8
!!!OCY: Italia
!!!ODE: Queen Christina Alexandra of Sweden
!!!ODT: 1681//
!!!OPC: Roma; Rome
!!!AGN: trio sonata
!!!AST: baroque, chamber
!!!AMT: simple quadruple
!!!YOR1: J. Joachim & F. Chrysander (eds.) Les Oeuvre de Arcangelo Corelli
!!!YOR2: London: Augener & Co. 1871
!!!YOY: 1871
!!!AIN: archl cello organ violn
!!!EEV: 1.1
!!!RDT: 1993 August 19
!!!YER: 1994 December 14
!!!EMD: 1996 July 9
!!!YEN: United States of America
!!!EFL: 2/3
!!!ENC: Frances Bennion & Steven Rasmussen
!!!EED: W.B. Hewlett
!!!VTS: 3177095443
